X: 7
T: 3. Scotch Mist
M: C
L: 1/8
% Q: 220
K: C
|: E>F | \
"C" G>E G<c "F" A>F A<c | "G"  B>cd>B "C"  c2e2  | "Dm" f>ef>a "C" g>ed>c  | "Dm" A<A f>e "G" d2E>F | 
"C" G>E G<c "F" A>F A<c | "G7" B>cd>B "Am" c2e2  | "Dm" f>ef>a "C" g>e c<G | "Dm" A>f     "G" e/d/c/B/ "C" c2e>f |
"C" g>ag>e "Am" c>de>c  | "Dm" f>ga>f "G"  d2e>f | "C" g>ag>e "Am" c>de>c  | "Dm" A2f>e   "G" d2E>F |
"C" G>E G<c "F" A>FA<c  | "G7" B>cd>B "Am" c2 e2 | "Dm" f>ef>a "C" g>e c<G | "Dm" A>f     "G" e/d/c/B/ "C" c2   :|
%%newpage
%%textfont Times-Roman 8
%%text November 2005 Dance page 6 of 31
%%textfont Times-Roman 22
% ---------------------------------------------------------
%%center Shiftin' Bobbins
% ---------------------------------------------------------
%%textfont Times-Roman 10
%%center 8x32 Reel    1 2 3 1 2 3 2 1
